resources/svg/candle-chart.svg

<svg xmlns="http://www.w3.org/2000/svg" viewBox="0 0 15 15" fill="currentColor"><path d="M1 0H0v15h15v-1H1V0z" fill="currentColor"/><path d="M8 0v3H7v5h3V3H9V0H8zM3 4v1H2v5h1v2h1v-2h1V5H4V4H3zm9 2h1V4h1v2h1v5h-1v2h-1v-2h-1V6z" fill="currentColor"/></svg>

<svg xmlns="http://www.w3.org/2000/svg" viewBox="0 0 15 15" fill="currentColor"><path d="M1 0H0V15H15V14H1V0Z" fill="black"/><path d="M8 0V3H7V8H10V3H9V0H8Z" fill="black"/><path d="M3 4V5H2V10H3V12H4V10H5V5H4V4H3Z" fill="black"/><path d="M12 6H13V4H14V6H15V11H14V13H13V11H12V6Z" fill="black"/></svg>
